/* XPM */
static char *_6dce639af7e4533a2465c4d9aa8f3ffNCr0TFJ1TtW94fIk[] = {
/* columns rows colors chars-per-pixel */
"32 32 2 1 ",
"  c black",
". c #FFC20E",
/* pixels */
"                                ",
" .............................. ",
" .............................. ",
" ..........        ............ ",
" .......... ...... ............ ",
" .......... ................... ",
" .......... ................... ",
" ..........      .............. ",
" .......... ................... ",
" .......... ................... ",
" ..........        ............ ",
" .............................. ",
" ................. ............ ",
" .................  ........... ",
" .................   .......... ",
" .................    ......... ",
" .....                 ........ ",
" .....                  ....... ",
" .....                    ..... ",
" .....                      ... ",
" .....                      ... ",
" .....                     .... ",
" .....                    ..... ",
" .....   ........       ....... ",
" ................     ......... ",
" ................    .......... ",
" ................. ............ ",
" .............................. ",
" .............................. ",
" .............................. ",
" .............................. ",
"                                "
};
