/* XPM */
static char *b697864e99d54a5da14f612980b74e2bplxzQ6W9tiWUmPAa[] = {
/* columns rows colors chars-per-pixel */
"32 32 2 1 ",
"  c black",
". c #ED1C24",
/* pixels */
"                                ",
" .............................. ",
" ..........  ....  ............ ",
" ..........   ...  ............ ",
" ...........   ..  ............ ",
" ........... .  . ............. ",
" .......... ...   ............. ",
" .......... ....  ............. ",
" ..........  .... ............. ",
" .............................. ",
" .............................. ",
" .............  ............... ",
" ............    .............. ",
" ...........      ............. ",
" ..........        ............ ",
" .........           .......... ",
" ........              ........ ",
" ......                 ....... ",
" ......                 ....... ",
" ............      ............ ",
" ............      ............ ",
" ............      ............ ",
" ............      ............ ",
" ............      ............ ",
" ............      ............ ",
" ............      ............ ",
" ............      ............ ",
" .............................. ",
" .............................. ",
" .............................. ",
" .............................. ",
"                                "
};
