/* XPM */
static char *_d93c1416d63485fdaab90a49f9fee35byu6GIKp7HtZW7tV[] = {
/* columns rows colors chars-per-pixel */
"32 32 2 1 ",
"  c black",
". c #22B14C",
/* pixels */
"                                ",
" .............................. ",
" .............     ............ ",
" ...........   ...  ........... ",
" ........... ...... ........... ",
" ...........  ................. ",
" ............  ................ ",
" .............    ............. ",
" ................  ............ ",
" ................. ............ ",
" .......... .....  ............ ",
" ..........  .    ............. ",
" ...........  ................. ",
" .............................. ",
" .......... ................... ",
" ..........         ........... ",
" ..........         ........... ",
" ..........         ........... ",
" ..........         ........... ",
" ..........         ........... ",
" ..........         ........... ",
" ..........         ........... ",
" .... .....         ........... ",
" ....                 ......... ",
" .....                  ....... ",
" .......                ....... ",
" .........            ......... ",
" ...........        ........... ",
" ............     ............. ",
" ..............  .............. ",
" .............................. ",
"                                "
};
