/* XPM */
static char *_8595526a64d48d991b549392c6a2b54wQul44NdaJxbQtgv[] = {
/* columns rows colors chars-per-pixel */
"64 64 2 1 ",
"  c black",
". c #00B7EF",
/* pixels */
"                                                                ",
"                                                                ",
"                                                                ",
"   ..........................................................   ",
"   ..........................................................   ",
"   ..........................................................   ",
"   ..........................................................   ",
"   ..........................................................   ",
"   ................................. ........................   ",
"   ..................... ........... ........................   ",
"   ..................... ........... ........................   ",
"   ..................... ........... ........................   ",
"   ..................... ........... ........................   ",
"   ...................... ....  ... .........................   ",
"   ...................... ...   ... .........................   ",
"   ...................... ..  ..    .........................   ",
"   ...................... .  ....  ..........................   ",
"   ......................   .................................   ",
"   ....................... ..................................   ",
"   ..........................................................   ",
"   ..........................................................   ",
"   ..........................................................   ",
"   ..........................................................   ",
"   ..........................................................   ",
"   ..........................................................   ",
"   ..........................................................   ",
"   ..........................................................   ",
"   ...................... ...................................   ",
"   .....................   ..................................   ",
"   ...................     ..................................   ",
"   ..................      ..................................   ",
"   .................       ..................................   ",
"   ................        ................... ..............   ",
"   ...............          .................. ..............   ",
"   ..............           ...........        ..............   ",
"   .............             ..                ..............   ",
"   ...........                                  .............   ",
"   ..........                                   .............   ",
"   ..........                                   .............   ",
"   ...........                                  .............   ",
"   ............                                 .............   ",
"   .............                                 ............   ",
"   ..............                                ............   ",
"   ...............                               ............   ",
"   .................                             ............   ",
"   ..................          .........         ............   ",
"   ....................        ................. ............   ",
"   .....................       ..............................   ",
"   ......................      ..............................   ",
"   .......................     ..............................   ",
"   .........................   ..............................   ",
"   ..........................  ..............................   ",
"   ........................... ..............................   ",
"   ..........................................................   ",
"   ..........................................................   ",
"   ..........................................................   ",
"   ..........................................................   ",
"   ..........................................................   ",
"   ..........................................................   ",
"   ..........................................................   ",
"   ..........................................................   ",
"                                                                ",
"                                                                ",
"                                                                "
};
